img/envelope.svg

<svg height="384" viewBox="0 0 512 384" width="512" xmlns="http://www.w3.org/2000/svg"><path d="m502.3 126.8c3.9-3.1 9.7-.2 9.7 4.7v204.5c0 26.5-21.5 48-48 48h-416c-26.5 0-48-21.5-48-48v-204.4c0-5 5.7-7.8 9.7-4.7 22.4 17.4 52.1 39.5 154.1 113.6 21.1 15.4 56.7 47.8 92.2 47.6 35.7.3 72-32.8 92.3-47.6 102-74.1 131.6-96.3 154-113.7zm-246.3 129.2c23.2.4 56.6-29.2 73.4-41.4 132.7-96.3 142.8-104.7 173.4-128.7 5.8-4.5 9.2-11.5 9.2-18.9v-19c0-26.5-21.5-48-48-48h-416c-26.5 0-48 21.5-48 48v19c0 7.4 3.4 14.3 9.2 18.9 30.6 23.9 40.7 32.4 173.4 128.7 16.8 12.2 50.2 41.8 73.4 41.4z" fill="#fff"/></svg>

<?xml version="1.0" encoding="UTF-8"?>
<svg width="512px" height="384px" viewBox="0 0 512 384" version="1.1" xmlns="http://www.w3.org/2000/svg" xmlns:xlink="http://www.w3.org/1999/xlink">
    <!-- Generator: Sketch 48.2 (47327) - http://www.bohemiancoding.com/sketch -->
    <title>envelope (1)</title>
    <desc>Created with Sketch.</desc>
    <defs></defs>
    <g id="Page-1" stroke="none" stroke-width="1" fill="none" fill-rule="evenodd">
        <g id="envelope-(1)" fill="#FFFFFF" fill-rule="nonzero">
            <path d="M502.3,126.8 C506.2,123.7 512,126.6 512,131.5 L512,336 C512,362.5 490.5,384 464,384 L48,384 C21.5,384 0,362.5 0,336 L0,131.6 C0,126.6 5.7,123.8 9.7,126.9 C32.1,144.3 61.8,166.4 163.8,240.5 C184.9,255.9 220.5,288.3 256,288.1 C291.7,288.4 328,255.3 348.3,240.5 C450.3,166.4 479.9,144.2 502.3,126.8 Z M256,256 C279.2,256.4 312.6,226.8 329.4,214.6 C462.1,118.3 472.2,109.9 502.8,85.9 C508.6,81.4 512,74.4 512,67 L512,48 C512,21.5 490.5,2.84217094e-14 464,2.84217094e-14 L48,2.84217094e-14 C21.5,0 0,21.5 0,48 L0,67 C0,74.4 3.4,81.3 9.2,85.9 C39.8,109.8 49.9,118.3 182.6,214.6 C199.4,226.8 232.8,256.4 256,256 Z" id="Shape"></path>
        </g>
    </g>
</svg>
